src/icons/svg/ycombinator.svg

<svg xmlns="http://www.w3.org/2000/svg" width="24" height="24" fill="none"><path fill="#373B4D" d="M21 3H3v18h18z"/><path fill="#fff" d="M11.4 13.2 8.28 7.38h1.44l1.8 3.66c0 .06.06.12.12.18s.06.12.12.24l.06.06v.06c.06.12.06.18.12.3.06.06.06.18.12.24.06-.18.18-.3.24-.54.06-.18.18-.36.3-.54l1.8-3.66h1.32l-3.12 5.88v3.72h-1.2z"/></svg>

<svg width="24" height="24" viewBox="0 0 24 24" fill="none" xmlns="http://www.w3.org/2000/svg">
<path d="M21 3H3V21H21V3Z" fill="#373B4D"/>
<path d="M11.4 13.2L8.28003 7.38H9.72003L11.52 11.04C11.52 11.1 11.58 11.16 11.64 11.22C11.7 11.28 11.7 11.34 11.76 11.46L11.82 11.52V11.58C11.88 11.7 11.88 11.76 11.94 11.88C12 11.94 12 12.06 12.06 12.12C12.12 11.94 12.24 11.82 12.3 11.58C12.36 11.4 12.48 11.22 12.6 11.04L14.4 7.38H15.72L12.6 13.26V16.98H11.4V13.2Z" fill="white"/>
</svg>
